images/logo.svg

<svg width="69" height="50" viewBox="0 0 69 50" fill="none" xmlns="http://www.w3.org/2000/svg">
<g clip-path="url(#clip0_627_98)">
<g filter="url(#filter0_i_627_98)">
<path d="M8.37207 6.06596C8.37207 2.71582 11.006 -2.74572e-07 14.2551 0C17.5042 2.74571e-07 20.1381 2.71582 20.1381 6.06596C20.1381 9.41608 17.5042 12.1319 14.2551 12.1319C11.006 12.1319 8.37207 9.41608 8.37207 6.06596Z" fill="url(#paint0_radial_627_98)"/>
</g>
<path fill-rule="evenodd" clip-rule="evenodd" d="M7.32383 11.1694C7.13093 10.8598 6.64813 10.917 6.56436 11.2757C6.39726 11.9916 6.22999 12.7508 6.05463 13.5466C5.1767 17.5312 4.09616 22.4351 1.82058 27.4247C1.6186 27.8077 1.43068 28.2054 1.25974 28.6093C1.25547 28.6223 1.24971 28.632 1.2424 28.6444C1.23973 28.6489 1.23685 28.6538 1.23376 28.6594C0.451377 30.5166 0.0135021 32.5665 0.000332926 34.7238C-0.0530619 43.1107 6.32293 49.9499 14.2423 49.9996C22.1645 50.0553 28.6252 43.2993 28.6786 34.9126C28.7018 32.9121 28.3439 31.0029 27.6923 29.2508C27.6857 29.2367 27.6814 29.2215 27.6772 29.2064C27.6741 29.1956 27.671 29.1847 27.6671 29.1743C27.4542 28.6056 27.2084 28.0537 26.9327 27.5243C24.0577 20.8752 23.0366 16.1422 22.2858 12.6618C22.18 12.1714 22.0796 11.706 21.9801 11.2635C21.899 10.9029 21.4153 10.8449 21.2224 11.1559C19.757 13.5181 17.1903 15.0842 14.2689 15.0842C11.3531 15.0842 8.79068 13.5241 7.32383 11.1694Z" fill="url(#paint1_radial_627_98)"/>
<g filter="url(#filter1_i_627_98)">
<path d="M22.5703 34.7762C22.5703 39.5412 18.8601 43.404 14.2832 43.404C9.70634 43.404 5.99609 39.5412 5.99609 34.7762C5.99609 30.0112 9.70634 26.1484 14.2832 26.1484C18.8601 26.1484 22.5703 30.0112 22.5703 34.7762Z" fill="url(#paint2_radial_627_98)"/>
</g>
<path d="M20.1377 34.7468C20.1377 38.0969 17.5291 40.8127 14.3113 40.8127C11.0935 40.8127 8.48486 38.0969 8.48486 34.7468C8.48486 31.3966 11.0935 28.6808 14.3113 28.6808C17.5291 28.6808 20.1377 31.3966 20.1377 34.7468Z" fill="url(#paint3_radial_627_98)"/>
<path fill-rule="evenodd" clip-rule="evenodd" d="M20.1947 34.7468C20.1947 38.1294 17.5608 40.8716 14.3117 40.8716C11.0626 40.8716 8.42871 38.1294 8.42871 34.7468C8.42871 31.3641 11.0626 28.6219 14.3117 28.6219C17.5608 28.6219 20.1947 31.3641 20.1947 34.7468ZM14.3117 40.8054C17.5257 40.8054 20.1311 38.0929 20.1311 34.7468C20.1311 31.4007 17.5257 28.6881 14.3117 28.6881C11.0977 28.6881 8.49229 31.4007 8.49229 34.7468C8.49229 38.0929 11.0977 40.8054 14.3117 40.8054Z" fill="#1E5624"/>
<path d="M11.3806 31.9112C11.023 32.4376 11.0603 33.0975 11.4614 33.3824C11.8625 33.6674 12.4748 33.4701 12.8325 32.9437C13.1901 32.4173 13.1528 31.7574 12.7517 31.4725C12.3506 31.1876 11.7387 31.3814 11.3806 31.9112Z" fill="white"/>
<path d="M55.3035 11.7096L49.973 24.2739H48.7178L43.3872 11.7096H44.7628L49.3712 22.6226L54.0139 11.7096H55.3035Z" fill="#E2FB4C"/>
<path d="M62.0227 24.3816C60.8303 24.3816 59.747 24.1064 58.7729 23.5559C57.8096 22.9936 57.0533 22.2277 56.503 21.2585C55.9643 20.2892 55.6948 19.2004 55.6948 17.9918C55.6948 16.7832 55.9643 15.6943 56.503 14.725C57.0533 13.7558 57.8096 12.9959 58.7729 12.4455C59.747 11.8831 60.8303 11.6019 62.0227 11.6019C63.2152 11.6019 64.2866 11.8771 65.238 12.4276C66.2014 12.978 66.9577 13.7438 67.5081 14.725C68.0585 15.6943 68.3334 16.7832 68.3334 17.9918C68.3334 19.2004 68.0585 20.2952 67.5081 21.2764C66.9577 22.2457 66.2014 23.0055 65.238 23.5559C64.2866 24.1064 63.2152 24.3816 62.0227 24.3816ZM62.0227 23.197C62.9742 23.197 63.834 22.9756 64.6022 22.5329C65.3698 22.0781 65.9717 21.4559 66.4073 20.6662C66.8434 19.8644 67.0612 18.973 67.0612 17.9918C67.0612 17.0105 66.8434 16.125 66.4073 15.3353C65.9717 14.5336 65.3698 13.9113 64.6022 13.4686C63.834 13.0139 62.9742 12.7865 62.0227 12.7865C61.0713 12.7865 60.2058 13.0139 59.4263 13.4686C58.6581 13.9113 58.0506 14.5336 57.6037 15.3353C57.1681 16.125 56.9503 17.0105 56.9503 17.9918C56.9503 18.973 57.1681 19.8644 57.6037 20.6662C58.0506 21.4559 58.6581 22.0781 59.4263 22.5329C60.2058 22.9756 61.0713 23.197 62.0227 23.197Z" fill="#E2FB4C"/>
<path d="M63.808 17.8445C63.808 18.8528 63.0353 19.6702 62.0827 19.6702C61.1301 19.6702 60.3574 18.8528 60.3574 17.8445C60.3574 16.8362 61.1301 16.0188 62.0827 16.0188C63.0353 16.0188 63.808 16.8362 63.808 17.8445Z" fill="url(#paint4_radial_627_98)"/>
<path fill-rule="evenodd" clip-rule="evenodd" d="M63.9211 17.8445C63.9211 18.8853 63.1105 19.7291 62.1109 19.7291C61.1114 19.7291 60.3008 18.8853 60.3008 17.8445C60.3008 16.8037 61.1114 15.96 62.1109 15.96C63.1105 15.96 63.9211 16.8037 63.9211 17.8445ZM62.1109 19.663C63.0754 19.663 63.8577 18.8488 63.8577 17.8445C63.8577 16.8402 63.0754 16.0261 62.1109 16.0261C61.1465 16.0261 60.3641 16.8402 60.3641 17.8445C60.3641 18.8488 61.1465 19.663 62.1109 19.663Z" fill="#1E5624"/>
<path d="M42.7478 21.2661H36.0335L34.5874 24.6172H33.2617L38.7709 12.073H40.0277L45.5368 24.6172H44.194L42.7478 21.2661ZM42.283 20.1909L39.3907 13.4529L36.4983 20.1909H42.283Z" fill="#E2FB4C"/>
<path d="M44.7363 28.9753V41.5194H43.6873L35.9484 31.3407V41.5194H34.6758V28.9753H35.7248L43.4809 39.1539V28.9753H44.7363Z" fill="white"/>
<path d="M48.9064 30.1221V35.0502H55.1319V36.1971H48.9064V41.5194H47.6338V28.9753H55.8886V30.1221H48.9064Z" fill="white"/>
<path d="M62.2347 30.0044H57.9814V28.8575H67.7676V30.0044H63.5143V41.4017H62.2347V30.0044Z" fill="white"/>
</g>
<defs>
<filter id="filter0_i_627_98" x="8.37207" y="0" width="11.7661" height="16.1319" filterUnits="userSpaceOnUse" color-interpolation-filters="sRGB">
<feFlood flood-opacity="0" result="BackgroundImageFix"/>
<feBlend mode="normal" in="SourceGraphic" in2="BackgroundImageFix" result="shape"/>
<feColorMatrix in="SourceAlpha" type="matrix" values="0 0 0 0 0 0 0 0 0 0 0 0 0 0 0 0 0 0 127 0" result="hardAlpha"/>
<feOffset dy="4"/>
<feGaussianBlur stdDeviation="27.5"/>
<feComposite in2="hardAlpha" operator="arithmetic" k2="-1" k3="1"/>
<feColorMatrix type="matrix" values="0 0 0 0 0.607843 0 0 0 0 0.772549 0 0 0 0 0.396078 0 0 0 1 0"/>
<feBlend mode="normal" in2="shape" result="effect1_innerShadow_627_98"/>
</filter>
<filter id="filter1_i_627_98" x="5.99609" y="26.1484" width="16.5742" height="21.2556" filterUnits="userSpaceOnUse" color-interpolation-filters="sRGB">
<feFlood flood-opacity="0" result="BackgroundImageFix"/>
<feBlend mode="normal" in="SourceGraphic" in2="BackgroundImageFix" result="shape"/>
<feColorMatrix in="SourceAlpha" type="matrix" values="0 0 0 0 0 0 0 0 0 0 0 0 0 0 0 0 0 0 127 0" result="hardAlpha"/>
<feOffset dy="4"/>
<feGaussianBlur stdDeviation="27.5"/>
<feComposite in2="hardAlpha" operator="arithmetic" k2="-1" k3="1"/>
<feColorMatrix type="matrix" values="0 0 0 0 0.607843 0 0 0 0 0.772549 0 0 0 0 0.396078 0 0 0 1 0"/>
<feBlend mode="normal" in2="shape" result="effect1_innerShadow_627_98"/>
</filter>
<radialGradient id="paint0_radial_627_98" cx="0" cy="0" r="1" gradientUnits="userSpaceOnUse" gradientTransform="translate(13.8669 5.88003) rotate(-174.852) scale(13.8114 15.3286)">
<stop offset="0.13486" stop-color="#F7EF7C"/>
<stop offset="0.9628" stop-color="#A4C967"/>
<stop offset="1" stop-color="#9BC565"/>
</radialGradient>
<radialGradient id="paint1_radial_627_98" cx="0" cy="0" r="1" gradientUnits="userSpaceOnUse" gradientTransform="translate(14.3324 33.7155) scale(16.0596 23.5414)">
<stop offset="0.280643" stop-color="#F7EF7C"/>
<stop offset="0.585254" stop-color="#EFEB7A"/>
<stop offset="0.881033" stop-color="#BCD46D"/>
<stop offset="0.9628" stop-color="#A4C967"/>
<stop offset="1" stop-color="#9BC565"/>
</radialGradient>
<radialGradient id="paint2_radial_627_98" cx="0" cy="0" r="1" gradientUnits="userSpaceOnUse" gradientTransform="translate(14.83 35.0406) rotate(-3.33939) scale(50.5069 56.6169)">
<stop stop-color="#BCD46D"/>
<stop offset="0.9628" stop-color="#A4C967"/>
<stop offset="1" stop-color="#9BC565"/>
</radialGradient>
<radialGradient id="paint3_radial_627_98" cx="0" cy="0" r="1" gradientUnits="userSpaceOnUse" gradientTransform="translate(13.6732 33.8006) rotate(23.9172) scale(4.38482 5.86995)">
<stop stop-color="#D47863"/>
<stop offset="0.159" stop-color="#CC7460"/>
<stop offset="0.3243" stop-color="#B96C5A"/>
<stop offset="0.4925" stop-color="#9E5F50"/>
<stop offset="0.6627" stop-color="#7D4F43"/>
<stop offset="0.8327" stop-color="#593B32"/>
<stop offset="1" stop-color="#37241C"/>
</radialGradient>
<radialGradient id="paint4_radial_627_98" cx="0" cy="0" r="1" gradientUnits="userSpaceOnUse" gradientTransform="translate(61.8938 17.5598) rotate(24.2643) scale(1.30194 1.7619)">
<stop stop-color="#9E5F50"/>
<stop offset="0.6627" stop-color="#7D4F43"/>
<stop offset="0.8327" stop-color="#593B32"/>
<stop offset="1" stop-color="#37241C"/>
</radialGradient>
<clipPath id="clip0_627_98">
<rect width="68.3333" height="50" fill="white"/>
</clipPath>
</defs>
</svg>

<svg width="69" height="50" fill="none" xmlns="http://www.w3.org/2000/svg"><g clip-path="url(#a)"><g filter="url(#b)"><path d="M8.372 6.066C8.372 2.716 11.006 0 14.255 0c3.25 0 5.883 2.716 5.883 6.066 0 3.35-2.634 6.066-5.883 6.066S8.372 9.416 8.372 6.066Z" fill="url(#c)"/></g><path fill-rule="evenodd" clip-rule="evenodd" d="M7.324 11.17c-.193-.31-.676-.253-.76.106-.167.716-.334 1.475-.51 2.27-.877 3.985-1.958 8.89-4.233 13.879-.202.383-.39.78-.561 1.184a.166.166 0 0 1-.018.035A15.84 15.84 0 0 0 0 34.724C-.053 43.11 6.323 49.95 14.242 50c7.922.055 14.383-6.7 14.437-15.087a15.691 15.691 0 0 0-1.002-5.707l-.01-.032a14.836 14.836 0 0 0-.734-1.65c-2.875-6.649-3.896-11.382-4.647-14.862-.106-.49-.206-.956-.306-1.399-.081-.36-.565-.418-.758-.107-1.465 2.362-4.032 3.928-6.953 3.928-2.916 0-5.478-1.56-6.945-3.915Z" fill="url(#d)"/><g filter="url(#e)"><path d="M22.57 34.776c0 4.765-3.71 8.628-8.287 8.628-4.577 0-8.287-3.863-8.287-8.628 0-4.765 3.71-8.628 8.287-8.628 4.577 0 8.287 3.863 8.287 8.628Z" fill="url(#f)"/></g><path d="M20.138 34.747c0 3.35-2.609 6.066-5.827 6.066-3.217 0-5.826-2.716-5.826-6.066 0-3.35 2.609-6.066 5.826-6.066 3.218 0 5.827 2.716 5.827 6.066Z" fill="url(#g)"/><path fill-rule="evenodd" clip-rule="evenodd" d="M20.195 34.747c0 3.382-2.634 6.125-5.883 6.125-3.25 0-5.883-2.743-5.883-6.125 0-3.383 2.634-6.125 5.883-6.125s5.883 2.742 5.883 6.125Zm-5.883 6.058c3.214 0 5.82-2.712 5.82-6.058 0-3.346-2.606-6.059-5.82-6.059-3.214 0-5.82 2.713-5.82 6.059s2.606 6.058 5.82 6.058Z" fill="#1E5624"/><path d="M11.38 31.911c-.357.527-.32 1.186.081 1.471.402.285 1.014.088 1.371-.438.358-.527.32-1.187-.08-1.472-.401-.284-1.013-.09-1.371.44Z" fill="#fff"/><path d="m55.303 11.71-5.33 12.564h-1.255l-5.33-12.564h1.375l4.608 10.913 4.643-10.913h1.29Zm6.72 12.672c-1.193 0-2.276-.276-3.25-.826a6.106 6.106 0 0 1-2.27-2.297c-.539-.97-.808-2.059-.808-3.267 0-1.209.27-2.298.808-3.267a5.975 5.975 0 0 1 2.27-2.28c.974-.562 2.057-.843 3.25-.843 1.192 0 2.264.275 3.215.826a5.94 5.94 0 0 1 2.27 2.297c.55.97.825 2.058.825 3.267 0 1.208-.275 2.303-.825 3.284a5.975 5.975 0 0 1-2.27 2.28c-.951.55-2.023.826-3.215.826Zm0-1.185c.951 0 1.811-.221 2.58-.664a4.856 4.856 0 0 0 1.804-1.867c.436-.802.654-1.693.654-2.674 0-.982-.218-1.867-.654-2.657a4.695 4.695 0 0 0-1.805-1.866c-.768-.455-1.628-.682-2.58-.682-.95 0-1.816.227-2.596.682a4.81 4.81 0 0 0-1.822 1.866c-.436.79-.654 1.675-.654 2.657 0 .981.218 1.872.654 2.674a4.978 4.978 0 0 0 1.822 1.867c.78.443 1.645.664 2.597.664Z" fill="#E2FB4C"/><path d="M63.808 17.845c0 1.008-.773 1.825-1.725 1.825-.953 0-1.726-.817-1.726-1.826 0-1.008.773-1.825 1.726-1.825.952 0 1.725.817 1.725 1.826Z" fill="url(#h)"/><path fill-rule="evenodd" clip-rule="evenodd" d="M63.921 17.845c0 1.04-.81 1.884-1.81 1.884s-1.81-.844-1.81-1.884c0-1.041.81-1.885 1.81-1.885s1.81.844 1.81 1.884Zm-1.81 1.818c.964 0 1.747-.814 1.747-1.819 0-1.004-.783-1.818-1.747-1.818-.964 0-1.747.814-1.747 1.819 0 1.004.783 1.818 1.747 1.818Z" fill="#1E5624"/><path d="M42.748 21.266h-6.715l-1.446 3.351h-1.325l5.509-12.544h1.257l5.509 12.544h-1.343l-1.446-3.35Zm-.465-1.075-2.892-6.738-2.893 6.738h5.785Z" fill="#E2FB4C"/><path d="M44.736 28.975V41.52h-1.049l-7.739-10.178V41.52h-1.272V28.975h1.049l7.756 10.179V28.975h1.255Zm4.17 1.147v4.928h6.226v1.147h-6.226v5.322h-1.272V28.975h8.255v1.147h-6.983Zm13.329-.118H57.98v-1.146h9.787v1.146h-4.254v11.398h-1.28V30.004Z" fill="#fff"/></g><defs><radialGradient id="c" cx="0" cy="0" r="1" gradientUnits="userSpaceOnUse" gradientTransform="matrix(-13.75569 -1.23928 1.37542 -15.26677 13.867 5.88)"><stop offset=".135" stop-color="#F7EF7C"/><stop offset=".963" stop-color="#A4C967"/><stop offset="1" stop-color="#9BC565"/></radialGradient><radialGradient id="d" cx="0" cy="0" r="1" gradientUnits="userSpaceOnUse" gradientTransform="matrix(16.0596 0 0 23.5414 14.332 33.715)"><stop offset=".281" stop-color="#F7EF7C"/><stop offset=".585" stop-color="#EFEB7A"/><stop offset=".881" stop-color="#BCD46D"/><stop offset=".963" stop-color="#A4C967"/><stop offset="1" stop-color="#9BC565"/></radialGradient><radialGradient id="f" cx="0" cy="0" r="1" gradientUnits="userSpaceOnUse" gradientTransform="matrix(50.42114 -2.94205 3.29795 56.52076 14.83 35.04)"><stop stop-color="#BCD46D"/><stop offset=".963" stop-color="#A4C967"/><stop offset="1" stop-color="#9BC565"/></radialGradient><radialGradient id="g" cx="0" cy="0" r="1" gradientUnits="userSpaceOnUse" gradientTransform="matrix(4.0083 1.77768 -2.37977 5.36591 13.673 33.8)"><stop stop-color="#D47863"/><stop offset=".159" stop-color="#CC7460"/><stop offset=".324" stop-color="#B96C5A"/><stop offset=".492" stop-color="#9E5F50"/><stop offset=".663" stop-color="#7D4F43"/><stop offset=".833" stop-color="#593B32"/><stop offset="1" stop-color="#37241C"/></radialGradient><radialGradient id="h" cx="0" cy="0" r="1" gradientUnits="userSpaceOnUse" gradientTransform="matrix(1.18693 .53502 -.72404 1.60626 61.893 17.56)"><stop stop-color="#9E5F50"/><stop offset=".663" stop-color="#7D4F43"/><stop offset=".833" stop-color="#593B32"/><stop offset="1" stop-color="#37241C"/></radialGradient><filter id="b" x="8.372" y="0" width="11.766" height="16.132" filterUnits="userSpaceOnUse" color-interpolation-filters="sRGB"><feFlood flood-opacity="0" result="BackgroundImageFix"/><feBlend in="SourceGraphic" in2="BackgroundImageFix" result="shape"/><feColorMatrix in="SourceAlpha" values="0 0 0 0 0 0 0 0 0 0 0 0 0 0 0 0 0 0 127 0" result="hardAlpha"/><feOffset dy="4"/><feGaussianBlur stdDeviation="27.5"/><feComposite in2="hardAlpha" operator="arithmetic" k2="-1" k3="1"/><feColorMatrix values="0 0 0 0 0.607843 0 0 0 0 0.772549 0 0 0 0 0.396078 0 0 0 1 0"/><feBlend in2="shape" result="effect1_innerShadow_627_98"/></filter><filter id="e" x="5.996" y="26.148" width="16.574" height="21.256" filterUnits="userSpaceOnUse" color-interpolation-filters="sRGB"><feFlood flood-opacity="0" result="BackgroundImageFix"/><feBlend in="SourceGraphic" in2="BackgroundImageFix" result="shape"/><feColorMatrix in="SourceAlpha" values="0 0 0 0 0 0 0 0 0 0 0 0 0 0 0 0 0 0 127 0" result="hardAlpha"/><feOffset dy="4"/><feGaussianBlur stdDeviation="27.5"/><feComposite in2="hardAlpha" operator="arithmetic" k2="-1" k3="1"/><feColorMatrix values="0 0 0 0 0.607843 0 0 0 0 0.772549 0 0 0 0 0.396078 0 0 0 1 0"/><feBlend in2="shape" result="effect1_innerShadow_627_98"/></filter><clipPath id="a"><path fill="#fff" d="M0 0h68.333v50H0z"/></clipPath></defs></svg>
